X:13
M:C
L:1/8
Q:1/4=140
K:D
|: (e>f) | g>fg>e | c>AB>c | d>cd>e f2 e>f | g>fg>e c>AB>c | (3efe (3dcB | A2 (FG) |!

